X:1
T:[ID 2-54b]
T:[ID 2-54b]
T:Bezeichnung standardisiert: Polonaise Menuet 8.
T:Urheber unbekannt Erstbeleg: vor 1767 (Datum in der schriftlichen Quelle) Datum in der hier transkribierten schriftlichen Quelle: 1775
C:Urheber unbekannt
C:Erstbeleg: vor 1767 (Datum in der schriftlichen Quelle)
C:Datum in der hier transkribierten schriftlichen Quelle: 1775
L:1/8
M:3/4
K:D
V:1 treble 
V:1
 F2 F2 F2 | FddAAF | d2 d2 d2 | (df)(fe)(ed) | f2 f2 f2 | f2 gabf | e2 e2 (3def | c6 :: C2 C2 C2 | %9
 CccAAC | FddFFC | DBBAAE | F2 f2 f2 | fe f4 | (3gfe A2 G2 | F6 :| %16

